Catalina-light/actions/16/focus-windows.svg

<svg xmlns="http://www.w3.org/2000/svg" width="16" height="16" viewBox="0 0 16 16">
 <defs>
  <style id="current-color-scheme" type="text/css">
   .ColorScheme-Text { color:#5c616c; } .ColorScheme-Highlight { color:#5294e2; }
  </style>
 </defs>
 <path style="fill:currentColor" class="ColorScheme-Text" d="M 6.5 1 C 6 1 6 1.5 6 1.5 L 6 9.5 C 6 10 6.5 10 6.5 10 L 15.5 10 C 15.5 10 16 10 16 9.5 L 16 1.5 C 16 1 15.5 1 15.5 1 L 6.5 1 z M 8 4 L 14 4 L 14 7.9960938 L 8 7.9960938 L 8 4 z M 1.5195312 6 C 1.5195312 6 1 6 1 6.5 L 1 14.5 C 1 15 1.5 15 1.5 15 L 10.5 15 C 10.5 15 11 14.97672 11 14.5 L 11 11.001953 L 9 11.001953 L 9 13.001953 L 3 13.001953 L 3 9 L 5 9 L 5 6 L 1.5195312 6 z"/>
</svg>

<svg width="16" height="16" viewBox="0 0 16 16" xmlns="http://www.w3.org/2000/svg">
<defs>
<style id="current-color-scheme" type="text/css">.ColorScheme-Text { color:#5c616c; } .ColorScheme-Highlight { color:#5294e2; }</style>
</defs>
<path class="ColorScheme-Text" d="m6.5 1c-0.5 0-0.5 0.5-0.5 0.5v8c0 0.5 0.5 0.5 0.5 0.5h9s0.5 0 0.5-0.5v-8c0-0.5-0.5-0.5-0.5-0.5h-9zm1.5 3h6v3.9961h-6v-3.9961zm-6.4805 2s-0.51953 0-0.51953 0.5v8c0 0.5 0.5 0.5 0.5 0.5h9s0.5-0.02328 0.5-0.5v-3.498h-2v2h-6v-4.002h2v-3h-3.4805z" fill="#363636"/>
</svg>
